src/main/resources/cards/fronts/spades_5.svg

<?xml version="1.0" encoding="UTF-8" standalone="no"?>
<!-- Created with Inkscape (http://www.inkscape.org/) -->

<svg
   xmlns:dc="http://purl.org/dc/elements/1.1/"
   xmlns:cc="http://creativecommons.org/ns#"
   xmlns:rdf="http://www.w3.org/1999/02/22-rdf-syntax-ns#"
   xmlns:svg="http://www.w3.org/2000/svg"
   xmlns="http://www.w3.org/2000/svg"
   xmlns:sodipodi="http://sodipodi.sourceforge.net/DTD/sodipodi-0.dtd"
   xmlns:inkscape="http://www.inkscape.org/namespaces/inkscape"
   width="234"
   height="333.00003"
   id="svg2"
   version="1.1"
   inkscape:version="0.92.4 (5da689c313, 2019-01-14)"
   sodipodi:docname="spades_5.svg"
   inkscape:export-filename="C:\Users\fowle\OneDrive\Projects\Playing-Cards\fronts\png-096-dpi\spades_5.png"
   inkscape:export-xdpi="96"
   inkscape:export-ydpi="96">
  <title
     id="title901">Five of Spades Playing Card</title>
  <defs
     id="defs4" />
  <sodipodi:namedview
     id="base"
     pagecolor="#ffffff"
     bordercolor="#666666"
     borderopacity="1.0"
     inkscape:pageopacity="0.0"
     inkscape:pageshadow="2"
     inkscape:zoom="2.1916676"
     inkscape:cx="58.207957"
     inkscape:cy="171.45245"
     inkscape:document-units="px"
     inkscape:current-layer="layer1"
     showgrid="false"
     inkscape:showpageshadow="false"
     showguides="true"
     inkscape:guide-bbox="true"
     inkscape:snap-global="true"
     inkscape:window-width="1456"
     inkscape:window-height="976"
     inkscape:window-x="433"
     inkscape:window-y="29"
     inkscape:window-maximized="0"
     fit-margin-top="0"
     fit-margin-left="0"
     fit-margin-right="0"
     fit-margin-bottom="0"
     showborder="false">
    <inkscape:grid
       type="xygrid"
       id="grid3767"
       empspacing="5"
       visible="true"
       enabled="true"
       snapvisiblegridlinesonly="true"
       originx="0"
       originy="5.1666068e-06" />
  </sodipodi:namedview>
  <metadata
     id="metadata7">
    <rdf:RDF>
      <cc:Work
         rdf:about="">
        <dc:format>image/svg+xml</dc:format>
        <dc:type
           rdf:resource="http://purl.org/dc/dcmitype/StillImage" />
        <dc:title>Five of Spades Playing Card</dc:title>
        <cc:license
           rdf:resource="http://creativecommons.org/publicdomain/zero/1.0/" />
        <dc:date>2020-05-05</dc:date>
        <dc:creator>
          <cc:Agent>
            <dc:title>Daniel S. Fowler</dc:title>
          </cc:Agent>
        </dc:creator>
        <dc:rights>
          <cc:Agent>
            <dc:title>Public Domain</dc:title>
          </cc:Agent>
        </dc:rights>
        <dc:publisher>
          <cc:Agent>
            <dc:title>https://tekeye.uk</dc:title>
          </cc:Agent>
        </dc:publisher>
        <dc:language>en-GB</dc:language>
        <dc:subject>
          <rdf:Bag>
            <rdf:li>five; spades; playing; card; black; white</rdf:li>
          </rdf:Bag>
        </dc:subject>
        <dc:description>A five of spades playing card.</dc:description>
      </cc:Work>
      <cc:License
         rdf:about="http://creativecommons.org/publicdomain/zero/1.0/">
        <cc:permits
           rdf:resource="http://creativecommons.org/ns#Reproduction" />
        <cc:permits
           rdf:resource="http://creativecommons.org/ns#Distribution" />
        <cc:permits
           rdf:resource="http://creativecommons.org/ns#DerivativeWorks" />
      </cc:License>
    </rdf:RDF>
  </metadata>
  <g
     inkscape:label="Layer 1"
     inkscape:groupmode="layer"
     id="layer1"
     transform="translate(0,-719.36216)">
    <g
       id="g924">
      <rect
         rx="8.9191856"
         ry="8.9457436"
         y="719.74011"
         x="0.37795275"
         height="332.24411"
         width="233.24409"
         id="rect4266"
         style="fill:#ffffff;fill-opacity:1;stroke:#808080;stroke-width:0.75590551;stroke-linecap:butt;stroke-linejoin:miter;stroke-miterlimit:4;stroke-dasharray:none;stroke-opacity:1" />
      <g
         transform="matrix(0.07348588,0,0,0.07370838,-248.01731,933.60062)"
         id="g4233"
         style="fill:none;stroke:#000000;stroke-width:3.18132639;stroke-opacity:1" />
      <g
         clip-path="none"
         style="fill:none;stroke:#000000;stroke-width:3.18132639;stroke-opacity:1"
         id="g4211"
         transform="matrix(0.07348588,0,0,0.07370838,-248.01728,933.60062)" />
      <g
         transform="matrix(0.07348588,0,0,0.07370838,-248.01731,933.60062)"
         id="g4227"
         style="fill:none;stroke:#000000;stroke-width:3.18132639;stroke-opacity:1" />
      <path
         sodipodi:nodetypes="cccccccccccccccc"
         inkscape:connector-curvature="0"
         id="path2985-3-11"
         d="m 12.898825,780.70209 c 0,-0.55605 -0.03079,-0.95768 -0.03079,-1.51377 1.149566,0 2.395148,0 3.544708,0 0,-1.3218 0,-1.41528 0,-2.73712 -2.243931,0.0723 -4.67246,0.23894 -6.7739019,-0.687 -1.6266179,-0.89273 -2.075448,-2.97087 -1.7474947,-4.67934 0.2807048,-1.92755 1.3522742,-3.6393 2.7501936,-4.95764 1.819108,-1.94577 4.139071,-3.2593 6.561151,-4.31616 2.472354,1.07475 4.843466,2.43125 6.685643,4.42831 1.659299,1.55933 2.764852,3.76316 2.730888,6.0706 0.03599,1.6655 -0.995685,3.42548 -2.697384,3.78891 -1.903705,0.52719 -3.830472,0.43365 -5.784745,0.35232 0,1.32184 0,1.41532 0,2.73712 1.14956,0 2.203119,0 3.352688,0 0,0.55609 0.03079,0.95772 0.03079,1.51377 -2.632285,-0.0186 -5.778625,-0.0186 -8.621752,0 z"
         style="fill:#000000;stroke:none;stroke-width:1" />
      <path
         sodipodi:nodetypes="cccccccccccccccc"
         inkscape:connector-curvature="0"
         id="path2985-3-11-7"
         d="m 212.48766,991.02222 c 0,0.55606 -0.0308,0.95768 -0.0308,1.51377 1.14955,0 2.39513,0 3.54471,0 0,1.3218 0,1.41528 0,2.73712 -2.24393,-0.0723 -4.67248,-0.23894 -6.77391,0.687 -1.62662,0.89273 -2.07544,2.97087 -1.7475,4.67939 0.28071,1.9275 1.35228,3.6392 2.75018,4.9576 1.81912,1.9458 4.13909,3.2593 6.56118,4.3161 2.47235,-1.0747 4.84345,-2.4312 6.68563,-4.4283 1.65931,-1.5593 2.76487,-3.7631 2.73088,-6.07056 0.036,-1.6655 -0.99569,-3.42548 -2.69737,-3.78891 -1.90372,-0.52719 -3.83047,-0.43365 -5.78475,-0.35232 0,-1.32184 0,-1.41532 0,-2.73712 1.14955,0 2.20314,0 3.35269,0 0,-0.55609 0.0307,-0.95771 0.0307,-1.51377 -2.63231,0.0186 -5.77863,0.0186 -8.62177,0 z"
         style="fill:#000000;stroke:none;stroke-width:1" />
      <path
         sodipodi:nodetypes="cccccccccccccccc"
         inkscape:connector-curvature="0"
         id="path2985-3-3"
         d="m 45.70946,814.07624 c 0,-1.66823 -0.09238,-2.87307 -0.09238,-4.5413 3.448704,0 7.185441,0 10.634123,0 0,-3.96545 0,-4.24592 0,-8.2114 -6.731793,0.2169 -14.01738,0.71685 -20.321702,-2.06095 -4.879854,-2.67821 -6.226348,-8.91266 -5.242485,-14.03808 0.842118,-5.78261 4.056821,-10.91785 8.250581,-14.87291 5.457325,-5.83729 12.417214,-9.77784 19.683448,-12.94844 7.417061,3.22422 14.530399,7.29373 20.056933,13.28492 4.977887,4.67796 8.294558,11.2895 8.192664,18.21177 0.107967,4.99649 -2.987067,10.27644 -8.092154,11.36674 -5.711113,1.58155 -11.491414,1.30096 -17.35423,1.05695 0,3.96548 0,4.24595 0,8.2114 3.448679,0 6.609354,0 10.058058,0 0,1.66823 0.0924,2.87307 0.0924,4.5413 -7.896858,-0.0556 -17.335871,-0.0556 -25.865256,0 z"
         style="fill:#000000;stroke:none;stroke-width:1" />
      <path
         sodipodi:nodetypes="cccccccccccccccc"
         inkscape:connector-curvature="0"
         id="path2985-3-3-5"
         d="m 162.45012,814.07624 c 0,-1.66823 -0.0924,-2.87307 -0.0924,-4.5413 3.44871,0 7.18544,0 10.63413,0 0,-3.96545 0,-4.24592 0,-8.2114 -6.7318,0.2169 -14.01738,0.71685 -20.3217,-2.06095 -4.87986,-2.67821 -6.22636,-8.91266 -5.24249,-14.03808 0.84212,-5.78261 4.05682,-10.91785 8.25058,-14.87291 5.45733,-5.83729 12.41722,-9.77784 19.68345,-12.94844 7.41706,3.22422 14.5304,7.29373 20.05693,13.28492 4.97789,4.67796 8.29456,11.2895 8.19267,18.21177 0.10796,4.99649 -2.98707,10.27644 -8.09216,11.36674 -5.71111,1.58155 -11.49141,1.30096 -17.35423,1.05695 0,3.96548 0,4.24595 0,8.2114 3.44868,0 6.60936,0 10.05806,0 0,1.66823 0.0924,2.87307 0.0924,4.5413 -7.89686,-0.0556 -17.33587,-0.0556 -25.86526,0 z"
         style="fill:#000000;stroke:none;stroke-width:1" />
      <path
         sodipodi:nodetypes="cccccccccccccccc"
         inkscape:connector-curvature="0"
         id="path2985-3-3-5-4-3-1"
         d="m 104.07979,914.1987 c 0,-1.66824 -0.0924,-2.87307 -0.0924,-4.54131 3.4487,0 7.18544,0 10.63412,0 0,-3.96545 0,-4.24592 0,-8.21139 -6.73179,0.2169 -14.01738,0.71685 -20.321703,-2.06095 -4.879857,-2.67822 -6.226351,-8.91266 -5.242487,-14.03808 0.842117,-5.78261 4.056822,-10.91785 8.250583,-14.87291 5.457327,-5.8373 12.417217,-9.77784 19.683447,-12.94845 7.41706,3.22423 14.5304,7.29373 20.05693,13.28493 4.97789,4.67795 8.29456,11.2895 8.19267,18.21177 0.10796,4.99649 -2.98707,10.27644 -8.09216,11.36673 -5.71111,1.58156 -11.49141,1.30097 -17.35423,1.05696 0,3.96547 0,4.24594 0,8.21139 3.44868,0 6.60936,0 10.05806,0 0,1.66824 0.0924,2.87307 0.0924,4.54131 -7.89686,-0.0556 -17.33587,-0.0556 -25.86526,0 z"
         style="fill:#000000;stroke:none;stroke-width:1" />
      <path
         sodipodi:nodetypes="cccccccccccccccc"
         inkscape:connector-curvature="0"
         id="path2985-3-38-2"
         d="m 45.70946,957.64807 c 0,1.66823 -0.09238,2.87307 -0.09238,4.54131 3.448704,0 7.185441,0 10.634123,0 0,3.96548 0,4.24591 0,8.21139 -6.731793,-0.2169 -14.01738,-0.71685 -20.321702,2.06098 -4.879854,2.67818 -6.226348,8.91263 -5.242485,14.03805 0.842118,5.78261 4.056821,10.91788 8.250581,14.8729 5.457325,5.8373 12.417214,9.7779 19.683448,12.9485 7.417061,-3.2242 14.530399,-7.2937 20.056933,-13.285 4.977887,-4.67793 8.294558,-11.28947 8.192664,-18.21174 0.107967,-4.99646 -2.987067,-10.27644 -8.092154,-11.3667 -5.711113,-1.58159 -11.491414,-1.301 -17.35423,-1.05699 0,-3.96548 0,-4.24591 0,-8.21139 3.448679,0 6.609354,0 10.058058,0 0,-1.66824 0.0924,-2.87308 0.0924,-4.54131 -7.896858,0.0556 -17.335871,0.0556 -25.865256,0 z"
         style="fill:#000000;stroke:none;stroke-width:1" />
      <path
         sodipodi:nodetypes="cccccccccccccccc"
         inkscape:connector-curvature="0"
         id="path2985-3-38-2-3"
         d="m 162.45012,957.64807 c 0,1.66824 -0.0924,2.87308 -0.0924,4.54131 3.44871,0 7.18544,0 10.63412,0 0,3.96548 0,4.24592 0,8.2114 -6.73179,-0.2169 -14.01738,-0.71685 -20.3217,2.06098 -4.87985,2.67818 -6.22635,8.91263 -5.24248,14.03805 0.84212,5.78261 4.05682,10.91788 8.25058,14.87289 5.45732,5.8373 12.41721,9.7779 19.68345,12.9485 7.41706,-3.2242 14.53039,-7.2937 20.05693,-13.285 4.97789,-4.67792 8.29456,-11.28946 8.19266,-18.21174 0.10797,-4.99645 -2.98706,-10.27643 -8.09215,-11.3667 -5.71111,-1.58159 -11.49142,-1.30099 -17.35423,-1.05698 0,-3.96548 0,-4.24592 0,-8.2114 3.44868,0 6.60935,0 10.05806,0 0,-1.66823 0.0924,-2.87307 0.0924,-4.54131 -7.89685,0.0556 -17.33587,0.0556 -25.86525,0 z"
         style="fill:#000000;stroke:none;stroke-width:1" />
      <g
         id="text3755-5"
         style="font-style:normal;font-variant:normal;font-weight:bold;font-stretch:normal;font-size:3.77201176px;line-height:0%;font-family:'Levenim MT';-inkscape-font-specification:'Sans Bold';letter-spacing:0px;word-spacing:0px;fill:#000000;fill-opacity:1;stroke:none;stroke-width:0.99999994"
         transform="scale(0.99509933,1.0049248)"
         aria-label="5">
        <path
           id="path903"
           style="font-size:39.90935898px;line-height:1.25;stroke-width:0.99999994"
           d="m 26.751238,742.30184 q 0,4.36509 -2.650231,6.93737 -2.630744,2.57228 -6.99583,2.57228 -4.189703,0 -6.625577,-2.04613 -2.6502312,-2.18254 -2.6502312,-6.2943 0,-0.66256 1.0522976,-0.66256 h 2.5527956 q 0.409227,0 0.759993,0.11692 0.116922,0.19487 0.155896,0.50667 0.331279,2.20203 1.266654,3.15689 1.052298,1.07178 3.234841,1.07178 2.182543,0 3.527145,-1.53947 1.266655,-1.46152 1.266655,-3.66355 0,-5.43687 -4.501495,-5.43687 -1.636907,0 -3.293302,1.13024 h -3.215353 q -0.448201,0 -0.857428,-0.11692 -0.1948699,-0.19487 -0.1948699,-0.4482 0,-2.76715 0.2923048,-6.97634 0.2533311,-3.50766 0.5066621,-6.99583 h 14.615243 q 0.506662,0 0.915889,0.15589 0.175383,0.38974 0.175383,2.72818 0,0.38974 -0.03897,0.64307 -0.136409,0.62359 -1.130245,0.62359 H 14.338024 q 0.05846,1.05229 -0.175383,3.21535 -0.233844,2.14357 -0.175383,3.19587 2.00716,-1.24717 4.189703,-1.24717 4.014321,0 6.35276,2.72818 2.221517,2.57228 2.221517,6.64506 z" />
      </g>
      <g
         id="text3755-2-28"
         style="font-style:normal;font-variant:normal;font-weight:bold;font-stretch:normal;font-size:3.77201176px;line-height:0%;font-family:'Levenim MT';-inkscape-font-specification:'Sans Bold';letter-spacing:0px;word-spacing:0px;fill:#000000;fill-opacity:1;stroke:none;stroke-width:0.99999994"
         transform="scale(-0.99509933,-1.0049248)"
         aria-label="5">
        <path
           id="path906"
           style="font-size:39.90935898px;line-height:1.25;stroke-width:0.99999994"
           d="m -208.40118,-1020.7398 q 0,4.3651 -2.65023,6.9374 -2.63075,2.5723 -6.99583,2.5723 -4.18971,0 -6.62558,-2.0462 -2.65023,-2.1825 -2.65023,-6.2943 0,-0.6625 1.0523,-0.6625 h 2.55279 q 0.40923,0 0.76,0.1169 0.11692,0.1949 0.15589,0.5067 0.33128,2.202 1.26666,3.1569 1.05229,1.0717 3.23484,1.0717 2.18254,0 3.52714,-1.5394 1.26666,-1.4616 1.26666,-3.6636 0,-5.4369 -4.5015,-5.4369 -1.63691,0 -3.2933,1.1303 h -3.21535 q -0.4482,0 -0.85743,-0.1169 -0.19487,-0.1949 -0.19487,-0.4482 0,-2.7672 0.2923,-6.9764 0.25333,-3.5076 0.50667,-6.9958 h 14.61524 q 0.50666,0 0.91589,0.1559 0.17538,0.3897 0.17538,2.7282 0,0.3897 -0.039,0.643 -0.13641,0.6236 -1.13025,0.6236 h -10.58144 q 0.0585,1.0523 -0.17538,3.2154 -0.23384,2.1435 -0.17538,3.1958 2.00716,-1.2471 4.1897,-1.2471 4.01432,0 6.35276,2.7282 2.22152,2.5722 2.22152,6.645 z" />
      </g>
    </g>
  </g>
</svg>

<svg width="234" height="333.00003" xmlns="http://www.w3.org/2000/svg">
    <g id="layer1" transform="matrix(1 0 0 1 0 -719.3622)">
        <g id="g924">
            <path id="rect4266" fill="#ffffff" stroke="#808080" stroke-width="0.7559055" d="M 9.297138 719.7401 L 224.70288 719.7401 C 229.6288 719.7401 233.62206 723.74524 233.62206 728.68585 L 233.62206 1043.0385 C 233.62207 1045.411 232.68237 1047.6864 231.0097 1049.3641 C 229.33702 1051.0417 227.06839 1051.9843 224.70288 1051.9843 L 9.297138 1051.9843 C 6.9316134 1051.9843 4.662975 1051.0417 2.9903018 1049.3641 C 1.3176281 1047.6864 0.3779376 1045.411 0.37795275 1043.0385 L 0.37795275 728.68585 C 0.37795484 723.74524 4.3712096 719.7401 9.297138 719.7401 Z"/>
            <g id="g4233" transform="matrix(0.07348588 0 0 0.07370838 -248.0173 933.60065)"/>
            <g id="g4211" transform="matrix(0.07348588 0 0 0.07370838 -248.01726 933.60065)"/>
            <g id="g4227" transform="matrix(0.07348588 0 0 0.07370838 -248.0173 933.60065)"/>
            <path id="path2985-3-11" fill="#000000" stroke="none" d="M 12.898825 780.7021 C 12.898825 780.14606 12.868036 779.7444 12.868036 779.1883 C 14.017601 779.1883 15.263182 779.1883 16.412743 779.1883 C 16.412743 777.8665 16.412743 777.77295 16.412743 776.4512 C 14.168812 776.52356 11.740283 776.6902 9.638841 775.7642 C 8.012223 774.87146 7.563393 772.7933 7.8913465 771.08484 C 8.172051 769.1573 9.243621 767.44556 10.64154 766.1272 C 12.460648 764.18146 14.78061 762.868 17.20269 761.81104 C 19.675045 762.8858 22.046156 764.2423 23.888336 766.2394 C 25.547632 767.7987 26.653187 770.00256 26.619223 772.31 C 26.655212 773.97546 25.623537 775.7355 23.921839 776.0989 C 22.018133 776.6261 20.091366 776.53253 18.137093 776.4512 C 18.137093 777.77295 18.137093 777.8665 18.137093 779.1883 C 19.286654 779.1883 20.340212 779.1883 21.489779 779.1883 C 21.489779 779.7444 21.52057 780.14606 21.52057 780.7021 C 18.888287 780.68353 15.741945 780.68353 12.898819 780.7021 Z"/>
            <path id="path2985-3-11-7" fill="#000000" stroke="none" d="M 212.48766 991.0222 C 212.48766 991.57825 212.45686 991.9799 212.45686 992.536 C 213.60641 992.536 214.85199 992.536 216.00157 992.536 C 216.00157 993.8578 216.00157 993.95135 216.00157 995.27313 C 213.75764 995.2008 211.32909 995.0342 209.22765 995.9601 C 207.60104 996.85284 207.15224 998.931 207.48016 1000.6395 C 207.76085 1002.567 208.83244 1004.2787 210.23035 1005.5971 C 212.04945 1007.5429 214.36943 1008.8563 216.7915 1009.9132 C 219.26387 1008.8385 221.63496 1007.482 223.47717 1005.4849 C 225.13646 1003.9256 226.24203 1001.7218 226.20804 999.4143 C 226.24403 997.74884 225.21234 995.98883 223.51067 995.6254 C 221.60693 995.09827 219.68019 995.1918 217.7259 995.27313 C 217.7259 993.95135 217.7259 993.8578 217.7259 992.536 C 218.87546 992.536 219.92905 992.536 221.07858 992.536 C 221.07858 991.9799 221.10928 991.57825 221.10928 991.0222 C 218.47699 991.0408 215.33067 991.0408 212.48753 991.0222 Z"/>
            <path id="path2985-3-3" fill="#000000" stroke="none" d="M 45.70946 814.07623 C 45.70946 812.408 45.61708 811.2032 45.61708 809.5349 C 49.065784 809.5349 52.80252 809.5349 56.2512 809.5349 C 56.2512 805.5695 56.2512 805.289 56.2512 801.3236 C 49.519413 801.5405 42.23382 802.0404 35.9295 799.2626 C 31.049646 796.58435 29.703152 790.3499 30.687014 785.2245 C 31.529135 779.44196 34.743835 774.30664 38.937595 770.3516 C 44.39492 764.5143 51.354813 760.5737 58.621044 757.40314 C 66.03811 760.6274 73.15144 764.6969 78.67798 770.6881 C 83.65587 775.366 86.97254 781.9776 86.87064 788.89984 C 86.978615 793.89636 83.883575 799.1763 78.77849 800.26654 C 73.067375 801.84814 67.28707 801.56757 61.424263 801.3236 C 61.424263 805.289 61.424263 805.5695 61.424263 809.5349 C 64.87294 809.5349 68.033615 809.5349 71.482315 809.5349 C 71.482315 811.2032 71.574715 812.408 71.574715 814.07623 C 63.677856 814.0206 54.23885 814.0206 45.70946 814.07623 Z"/>
            <path id="path2985-3-3-5" fill="#000000" stroke="none" d="M 162.45012 814.07623 C 162.45012 812.408 162.35773 811.2032 162.35773 809.5349 C 165.80643 809.5349 169.54317 809.5349 172.99185 809.5349 C 172.99185 805.5695 172.99185 805.289 172.99185 801.3236 C 166.26006 801.5405 158.97447 802.0404 152.67015 799.2626 C 147.79028 796.58435 146.44379 790.3499 147.42766 785.2245 C 148.26978 779.44196 151.48448 774.30664 155.67824 770.3516 C 161.13557 764.5143 168.09546 760.5737 175.3617 757.40314 C 182.77876 760.6274 189.89209 764.6969 195.41862 770.6881 C 200.39651 775.366 203.71318 781.9776 203.6113 788.89984 C 203.71925 793.89636 200.62424 799.1763 195.51913 800.26654 C 189.808 801.84814 184.02773 801.56757 178.1649 801.3236 C 178.1649 805.289 178.1649 805.5695 178.1649 809.5349 C 181.61359 809.5349 184.77426 809.5349 188.22296 809.5349 C 188.22296 811.2032 188.31537 812.408 188.31537 814.07623 C 180.4185 814.0206 170.97949 814.0206 162.4501 814.07623 Z"/>
            <path id="path2985-3-3-5-4-3-1" fill="#000000" stroke="none" d="M 104.07979 914.19867 C 104.07979 912.53046 103.98738 911.3256 103.98738 909.65735 C 107.4361 909.65735 111.17284 909.65735 114.62151 909.65735 C 114.62151 905.69196 114.62151 905.41144 114.62151 901.446 C 107.88972 901.6629 100.604126 902.16284 94.299805 899.3851 C 89.41995 896.7069 88.07345 890.4725 89.05732 885.347 C 89.89944 879.56433 93.11414 874.42914 97.30791 870.47406 C 102.76523 864.6368 109.72512 860.6962 116.99135 857.52563 C 124.40841 860.7498 131.52174 864.81934 137.04828 870.8106 C 142.02617 875.48846 145.34283 882.10004 145.24095 889.0223 C 145.3489 894.01874 142.25388 899.29877 137.14879 900.38904 C 131.43768 901.9706 125.65737 901.69 119.79456 901.446 C 119.79456 905.41144 119.79456 905.69196 119.79456 909.65735 C 123.24324 909.65735 126.40392 909.65735 129.85262 909.65735 C 129.85262 911.3256 129.94502 912.53046 129.94502 914.19867 C 122.04816 914.1431 112.60915 914.1431 104.07976 914.19867 Z"/>
            <path id="path2985-3-38-2" fill="#000000" stroke="none" d="M 45.70946 957.6481 C 45.70946 959.3163 45.61708 960.5211 45.61708 962.1894 C 49.065784 962.1894 52.80252 962.1894 56.2512 962.1894 C 56.2512 966.1548 56.2512 966.4353 56.2512 970.40076 C 49.519413 970.1839 42.23382 969.6839 35.9295 972.46173 C 31.049646 975.13995 29.703152 981.3744 30.687014 986.4998 C 31.529135 992.28235 34.743835 997.4177 38.937595 1001.37274 C 44.39492 1007.21 51.354813 1011.1506 58.621044 1014.3212 C 66.03811 1011.0969 73.15144 1007.02747 78.67798 1001.0362 C 83.65587 996.35834 86.97254 989.7467 86.87064 982.82446 C 86.978615 977.828 83.883575 972.54803 78.77849 971.45776 C 73.067375 969.8762 67.28707 970.1568 61.424263 970.40076 C 61.424263 966.4353 61.424263 966.1548 61.424263 962.1894 C 64.87294 962.1894 68.033615 962.1894 71.482315 962.1894 C 71.482315 960.5211 71.574715 959.3163 71.574715 957.6481 C 63.677856 957.7037 54.23885 957.7037 45.70946 957.6481 Z"/>
            <path id="path2985-3-38-2-3" fill="#000000" stroke="none" d="M 162.45012 957.6481 C 162.45012 959.3163 162.35773 960.5212 162.35773 962.1894 C 165.80643 962.1894 169.54317 962.1894 172.99184 962.1894 C 172.99184 966.1548 172.99184 966.4353 172.99184 970.40076 C 166.26006 970.1839 158.97446 969.6839 152.67014 972.46173 C 147.79028 975.13995 146.44379 981.3744 147.42766 986.4998 C 148.26978 992.28235 151.48448 997.4177 155.67824 1001.37274 C 161.13556 1007.21 168.09544 1011.1506 175.3617 1014.3212 C 182.77876 1011.0969 189.89207 1007.02747 195.41862 1001.0362 C 200.39651 996.35834 203.71318 989.74677 203.61128 982.82446 C 203.71925 977.828 200.62424 972.54803 195.51913 971.45776 C 189.808 969.8762 184.02771 970.1568 178.1649 970.40076 C 178.1649 966.4353 178.1649 966.1548 178.1649 962.1894 C 181.61359 962.1894 184.77425 962.1894 188.22296 962.1894 C 188.22296 960.5212 188.31537 959.3163 188.31537 957.6481 C 180.4185 957.7037 170.97949 957.7037 162.4501 957.6481 Z"/>
            <g id="text3755-5" transform="matrix(0.9950993 0 0 1.0049248 0 0)">
                <path id="path903" fill="#000000" stroke="none" d="M 26.751238 742.30176 Q 26.751238 746.667 24.101007 749.2392 Q 21.470263 751.81146 17.105177 751.81146 Q 12.915474 751.81146 10.4796 749.7653 Q 7.829368 747.5828 7.829368 743.4711 Q 7.829368 742.8085 8.881666 742.8085 L 11.434462 742.8085 Q 11.843689 742.8085 12.194455 742.9254 Q 12.311377 743.1203 12.350351 743.432 Q 12.681631 745.6341 13.617004 746.589 Q 14.669303 747.66077 16.851847 747.66077 Q 19.03439 747.66077 20.37899 746.1213 Q 21.645645 744.6598 21.645645 742.45776 Q 21.645645 737.0209 17.144152 737.0209 Q 15.507243 737.0209 13.850849 738.1511 L 10.635496 738.1511 Q 10.187295 738.1511 9.778068 738.0342 Q 9.583199 737.8393 9.583199 737.586 Q 9.583199 734.81885 9.875503 730.6097 Q 10.128834 727.102 10.382165 723.61383 L 24.997406 723.61383 Q 25.504068 723.61383 25.913298 723.7698 Q 26.08868 724.1594 26.08868 726.49786 Q 26.08868 726.88763 26.04971 727.1409 Q 25.9133 727.7645 24.919464 727.7645 L 14.338024 727.7645 Q 14.396483 728.81683 14.162641 730.9799 Q 13.928796 733.1235 13.987258 734.1758 Q 15.994418 732.9286 18.176962 732.9286 Q 22.191282 732.9286 24.52972 735.65686 Q 26.751238 738.22906 26.751238 742.30176 Z"/>
            </g>
            <g id="text3755-2-28" transform="matrix(-0.9950993 0 0 -1.0049248 0 0)">
                <path id="path906" fill="#000000" stroke="none" d="M -208.40118 -1020.7398 Q -208.40118 -1016.3747 -211.05139 -1013.8024 Q -213.68216 -1011.23004 -218.04724 -1011.23004 Q -222.23695 -1011.23004 -224.67284 -1013.27637 Q -227.32304 -1015.4588 -227.32304 -1019.57056 Q -227.32304 -1020.2331 -226.27077 -1020.2331 L -223.71796 -1020.2331 Q -223.30873 -1020.2331 -222.95796 -1020.11615 Q -222.84103 -1019.92126 -222.80206 -1019.6095 Q -222.4708 -1017.4075 -221.53542 -1016.4526 Q -220.48314 -1015.381 -218.30055 -1015.381 Q -216.11803 -1015.381 -214.77344 -1016.9203 Q -213.50676 -1018.3819 -213.50676 -1020.5839 Q -213.50676 -1026.0208 -218.00827 -1026.0208 Q -219.64519 -1026.0208 -221.30157 -1024.8905 L -224.51692 -1024.8905 Q -224.96512 -1024.8905 -225.37434 -1025.0074 Q -225.56921 -1025.2023 -225.56921 -1025.4556 Q -225.56921 -1028.2228 -225.2769 -1032.432 Q -225.02359 -1035.9396 -224.77025 -1039.4279 L -210.15501 -1039.4279 Q -209.64835 -1039.4279 -209.23912 -1039.2719 Q -209.06374 -1038.8822 -209.06374 -1036.5437 Q -209.06374 -1036.154 -209.10275 -1035.9008 Q -209.23914 -1035.2771 -210.233 -1035.2771 L -220.81442 -1035.2771 Q -220.75592 -1034.2249 -220.9898 -1032.0616 Q -221.22365 -1029.9182 -221.1652 -1028.8658 Q -219.15804 -1030.113 -216.97551 -1030.113 Q -212.96115 -1030.113 -210.62273 -1027.3848 Q -208.40123 -1024.8126 -208.40123 -1020.7398 Z"/>
            </g>
        </g>
    </g>
</svg>
